X: 43646
T: Zig Zag
R: reel
M: 4/4
K: Eminor
|:EBAF GFE(A|A)GFB AGFG|EBAF GFE(A|1 A)GFG E2ED:|2 A)GFG E4||
|:egfe dB (3BBB|dBB^d BBfg|egfe dBBA|1 GB d^d2 B fg:|2 GBAF GEE2||

